packages/match-logos/mono/svg/instacart.svg

<svg fill="none" height="34" viewBox="0 0 170 34" width="170" xmlns="http://www.w3.org/2000/svg"><path clip-rule="evenodd" d="m42.5287 6.08434c.3237-.00578.6454.05372.9456.17497.3003.12124.573.30173.802.5307s.4095.50172.5307.80198.1807.62187.175.94563c.0034.31823-.0586.63377-.1821.92708-.1234.29331-.3058.5582-.5358.7781-.23.22-.5027.3904-.8012.5008-.2985.1103-.6165.1582-.9342.1406-.3098.0058-.6175-.0509-.9048-.1668-.2874-.1159-.5484-.2885-.7674-.5076-.2191-.21904-.3917-.48004-.5076-.76736s-.1726-.59506-.1668-.90482c-.0085-.31555.0456-.62965.1592-.92417s.2844-.56361.5026-.79172.4794-.41072.7686-.53729.6006-.19458.9162-.2001zm-19.1996-5.866543c1.7066.426658 3.4132 1.599963 3.6266 3.413263.32 3.19993-5.3332 8.21314-6.6132 7.89314s-3.7333-7.46648-1.8133-10.13309c.96-1.493306 3.0933-1.59997 4.7999-1.173313zm4.4799 8.639823h.2133c.5731.12899 1.0979.41797 1.5133.83336.4154.41542.7043.94012.8333 1.51322l.1067.2134c.32 1.1733.2133 2.7732-.7466 3.4132-1.92 1.3867-6.9332-.32-7.2532-1.2799-.32-.96 2.9866-4.58662 5.3332-4.69328zm73.278 6.82648h-.533c-2.4531.2134-4.1598 2.24-4.1598 5.0133-.075 1.0273.1861 2.0512.7441 2.9171.5581.8659 1.3826 1.5267 2.3492 1.8828.4527.123.9175.1945 1.3865.2133h.427c.469-.0188.934-.0903 1.386-.2133.954-.3746 1.766-1.0396 2.321-1.901.556-.8614.826-1.8755.773-2.8989.07-1.1741-.293-2.3331-1.02-3.2573-.728-.9241-1.769-1.549-2.927-1.756zm35.52 0h-.534c-2.453.2134-4.16 2.24-4.16 5.0133-.075 1.0273.187 2.0512.745 2.9171s1.382 1.5267 2.349 1.8828c.452.123.918.1945 1.386.2133h.427c.469-.0188.934-.0903 1.387-.2133.954-.3746 1.766-1.0396 2.321-1.901s.825-1.8755.772-2.8989c.071-1.1741-.292-2.3331-1.02-3.2573-.727-.9241-1.769-1.549-2.927-1.756zm18.986-3.7332c.857.009 1.713.0803 2.56.2133.308.0755.575.2664.747.5333.093.1191.153.2615.172.4118.018.1504-.004.3031-.066.4416-.106.3199-.106.6399-.213 1.0666-.1.3736-.323.7027-.632.9348-.31.232-.688.3536-1.075.3452h-.32c-.385-.0838-.779-.1197-1.173-.1067-.491-.0028-.978.0918-1.432.2784s-.867.4615-1.214.8087c-.347.3473-.622.7599-.809 1.2142-.186.4542-.281.9409-.278 1.432v8.3198c-.014.3006-.125.5886-.318.8198-.192.2312-.456.3928-.749.4602h-1.493c-.301-.0134-.589-.125-.82-.3176-.231-.1927-.393-.4558-.46-.7491v-8.5331c0-1.9803.786-3.8794 2.187-5.2797 1.4-1.4002 3.299-2.1869 5.279-2.1869 0-.1066 0-.1066.107-.1066zm-100.2646 0c1.9894-.0523 3.9198.6784 5.376 2.0348s2.3218 3.2303 2.4105 5.2184v8.5331c-.0133.3007-.1249.5886-.3175.8198-.1927.2312-.4558.3928-.7491.4602h-1.4933c-.3007-.0134-.5886-.1249-.8198-.3176-.2312-.1926-.3928-.4558-.4602-.749v-7.8932c0-2.56-1.6-4.2666-3.8399-4.2666-2.24 0-3.7333 1.6-3.8399 4.0533v7.9998c-.0134.3006-.125.5886-.3176.8198-.1927.2312-.4558.3928-.7491.4602h-1.4933c-.3006-.0134-.5886-.125-.8198-.3176-.2312-.1927-.3928-.4558-.4602-.7491v-8.4265c-.0381-1.0097.1309-2.0165.4966-2.9585.3657-.9419.9204-1.7991 1.6298-2.5185.7095-.7195 1.5588-1.2861 2.4955-1.6649.9368-.3789 1.9412-.5619 2.9513-.5379zm-12.0531.2133c.3007.0134.5886.1249.8198.3176.2312.1926.3929.4558.4602.7491v14.5063c-.0134.3007-.1249.5886-.3176.8198-.1926.2312-.4557.3928-.749.4602h-1.4933c-.3007-.0134-.5886-.1249-.8198-.3176-.2312-.1926-.3929-.4558-.4602-.749v-14.6131c.0133-.3006.1249-.5886.3176-.8198.1926-.2311.4557-.3928.749-.4602h1.4933zm120.6377-5.01321c.3.01336.588.12491.82.31756.231.19265.392.45578.46.74908v3.83987h3.413c.301.0134.589.125.82.3176.231.1927.393.4558.46.7491v1.28c-.013.3006-.125.5886-.318.8198-.192.2311-.455.3928-.749.4601h-3.52v6.5066c.006.9035.367 1.7684 1.006 2.4073s1.504 1.0003 2.408 1.0059c.3.0134.588.1249.819.3176.232.1926.393.4558.461.7491v1.0666c-.009.3955-.16.7746-.427 1.0667-.124.1314-.272.2369-.437.3101-.165.0733-.343.1129-.523.1165h-.107c-1.884-.0355-3.681-.7999-5.014-2.1325-1.332-1.3326-2.097-3.1297-2.132-5.014v-13.65304c.013-.30064.125-.5886.317-.81979.193-.23118.456-.39283.749-.46018zm-79.1452 0c.3006.01336.5886.12491.8198.31756s.3928.45578.4602.74908v3.83987h3.4132c.3007.0134.5886.125.8198.3176.2312.1927.3929.4558.4602.7491v1.28c-.0134.3006-.1249.5886-.3176.8198-.1926.2311-.4557.3928-.749.4601h-3.52v6.5066c.0056.9035.367 1.7684 1.0059 2.4073s1.5039 1.0003 2.4074 1.0059c.3006.0134.5886.1249.8198.3176.2312.1926.3928.4558.4602.7491v1.0666c-.0083.3955-.1599.7746-.4267 1.0667-.1235.1314-.2721.2369-.4369.3101-.1649.0733-.3427.1129-.5231.1165h-.1066c-1.8843-.0355-3.6815-.7999-5.0141-2.1325s-2.0969-3.1297-2.1324-5.014v-13.65304c.0133-.30064.1249-.5886.3175-.81979.1927-.23118.4558-.39283.7491-.46018zm-12.0531 4.79991c1.7625.024 3.489.5015 5.0133 1.3866.1939.0854.3683.2098.5122.3654.1438.1556.2542.3391.3242.5392.07.2.0982.4123.0827.6237-.0154.2113-.0741.4173-.1725.605v.1067l-.1067.2133c-.1386.2491-.339.4584-.5818.6078-.2428.1495-.5199.234-.8048.2455-.1848.0278-.3735-.0099-.5333-.1066l-.1067-.1067-.2133-.1067c-.9993-.6035-2.1395-.9345-3.3066-.96-1.8133 0-2.9866.64-2.9866 1.7067 0 .8533.8533 1.3866 2.2399 1.7066h.2134l1.7066.2133c3.8399.5334 5.7599 2.1333 5.7599 4.9066 0 3.4133-2.7733 5.4399-7.2532 5.4399-2.1348-.0688-4.2211-.6544-6.0799-1.7066-.1906-.0908-.3575-.2249-.4871-.3915-.1296-.1667-.2185-.3614-.2595-.5685-.0615-.1928-.0838-.396-.0655-.5975.0184-.2015.0769-.3973.1721-.5758l.1067-.1067.1067-.1067c.1606-.2201.3686-.4014.6085-.5307.24-.1292.5059-.203.7781-.2159.2967.0071.5882.0799.8533.2133 1.3277.7725 2.8372 1.1774 4.3733 1.1733 2.7732 0 3.1999-1.0666 3.1999-1.8133 0-.7466-.7467-1.2799-2.4533-1.5999h-.2133l-1.7067-.2134c-3.8399-.4266-5.7598-2.1333-5.7598-4.9065 0-3.3066 2.7732-5.4399 7.0398-5.4399zm28.4793 0c1.572-.018 3.119.3873 4.48 1.1733l.32.2133c1.179.7571 2.149 1.7987 2.82 3.0289.671 1.2303 1.022 2.6096 1.02 4.011v7.3598c-.013.3007-.125.5886-.318.8198-.192.2312-.455.3928-.749.4602h-1.493c-.301-.0134-.589-.1249-.82-.3176-.231-.1926-.393-.4558-.46-.749v-.7467c-.611.7291-1.38 1.3097-2.248 1.6977-.869.3881-1.814.5735-2.765.5423-1.4691.0041-2.9099-.4023-4.1601-1.1734-1.3117-.7701-2.3907-1.8805-3.123-3.2136-.7323-1.3332-1.0906-2.8395-1.0369-4.3595-.0544-1.4165.2495-2.8237.8834-4.0916.6339-1.2678 1.5774-2.3552 2.7432-3.1616l.2133-.1067c1.3101-.8394 2.8188-1.3177 4.3731-1.3866zm35.519 0c1.572-.018 3.119.3873 4.48 1.1733l.32.2133c1.18.7571 2.149 1.7987 2.82 3.0289.671 1.2303 1.022 2.6096 1.02 4.011v7.3598c-.013.3007-.125.5886-.317.8198-.193.2312-.456.3928-.749.4602h-1.494c-.3-.0134-.588-.1249-.82-.3176-.231-.1926-.392-.4558-.46-.749v-.7467c-.611.7291-1.38 1.3097-2.248 1.6977-.869.3881-1.814.5735-2.765.5423-1.469.0041-2.91-.4023-4.16-1.1734-1.311-.7701-2.391-1.8805-3.123-3.2136-.732-1.3332-1.09-2.8395-1.037-4.3595-.054-1.4165.25-2.8237.884-4.0916.634-1.2678 1.577-2.3552 2.743-3.1616l.213-.1067c1.31-.8394 2.819-1.3177 4.373-1.3866zm-15.893 0c1.675-.0651 3.324.4221 4.694 1.3866.433.3057.738.7621.853 1.28.037.2483.018.5019-.055.7419-.074.24-.201.4604-.372.6447l-.106.1067-.107.1067c-.256.309-.624.5047-1.023.5446-.399.04-.798-.0791-1.11-.3313-.828-.5353-1.788-.8307-2.774-.8533-2.666 0-4.586 2.1333-4.586 5.0132s1.92 5.0132 4.586 5.0132c1.017-.0345 2.009-.3282 2.88-.8533.281-.2006.615-.3122.96-.32.424.0282.831.1761 1.174.4267l.106.1066.107.1067c.172.2051.298.4441.372.7013.073.2573.092.5271.055.792-.036.2643-.131.517-.279.7388-.148.2219-.344.407-.575.5412-1.431.9179-3.099 1.3997-4.8 1.3866-1.161.0482-2.32-.145-3.403-.5675s-2.067-1.0651-2.889-1.8871-1.464-1.8055-1.887-2.8885c-.422-1.083-.615-2.2419-.567-3.4034 0-4.9065 3.52-8.5331 8.746-8.5331zm-100.3709 1.7066c2.0267 2.0266 3.6266 5.3332 2.6667 7.2532-2.56 5.2266-21.33293 14.5064-22.932896 12.9064-1.599964-1.6 7.679836-20.3729 12.906396-22.9329 2.0266-.95994 5.3332.7467 7.3598 2.7733z" fill="#1f304c" fill-rule="evenodd"/></svg>

<svg width="170" height="34" viewBox="0 0 170 34" fill="none" xmlns="http://www.w3.org/2000/svg">
<path fill-rule="evenodd" clip-rule="evenodd" d="M42.5287 6.08434C42.8524 6.07856 43.1741 6.13806 43.4743 6.25931C43.7746 6.38055 44.0473 6.56104 44.2763 6.79001C44.5053 7.01898 44.6858 7.29173 44.807 7.59199C44.9282 7.89225 44.9877 8.21386 44.982 8.53762C44.9854 8.85585 44.9234 9.17139 44.7999 9.4647C44.6765 9.75801 44.4941 10.0229 44.2641 10.2428C44.0341 10.4628 43.7614 10.6332 43.4629 10.7436C43.1644 10.8539 42.8464 10.9018 42.5287 10.8842C42.2189 10.89 41.9112 10.8333 41.6239 10.7174C41.3365 10.6015 41.0755 10.4289 40.8565 10.2098C40.6374 9.99076 40.4648 9.72976 40.3489 9.44244C40.233 9.15512 40.1763 8.84738 40.1821 8.53762C40.1736 8.22207 40.2277 7.90797 40.3413 7.61345C40.4549 7.31893 40.6257 7.04984 40.8439 6.82173C41.0621 6.59362 41.3233 6.41101 41.6125 6.28444C41.9017 6.15787 42.2131 6.08986 42.5287 6.08434ZM23.3291 0.217797C25.0357 0.644455 26.7423 1.81776 26.9557 3.63106C27.2757 6.83099 21.6225 11.8442 20.3425 11.5242C19.0625 11.2042 16.6092 4.05772 18.5292 1.39111C19.4892 -0.102196 21.6225 -0.20886 23.3291 0.217797ZM27.809 8.85762H28.0223C28.5954 8.98661 29.1202 9.27559 29.5356 9.69098C29.951 10.1064 30.2399 10.6311 30.3689 11.2042L30.4756 11.4176C30.7956 12.5909 30.6889 14.1908 29.729 14.8308C27.809 16.2175 22.7958 14.5108 22.4758 13.5509C22.1558 12.5909 25.4624 8.96428 27.809 8.85762ZM101.087 15.6841H100.554C98.1009 15.8975 96.3942 17.9241 96.3942 20.6974C96.3192 21.7247 96.5803 22.7486 97.1383 23.6145C97.6964 24.4804 98.5209 25.1412 99.4875 25.4973C99.9402 25.6203 100.405 25.6918 100.874 25.7106H101.301C101.77 25.6918 102.235 25.6203 102.687 25.4973C103.641 25.1227 104.453 24.4577 105.008 23.5963C105.564 22.7349 105.834 21.7208 105.781 20.6974C105.851 19.5233 105.488 18.3643 104.761 17.4401C104.033 16.516 102.992 15.8911 101.834 15.6841H101.087ZM136.607 15.6841H136.073C133.62 15.8975 131.913 17.9241 131.913 20.6974C131.838 21.7247 132.1 22.7486 132.658 23.6145C133.216 24.4804 134.04 25.1412 135.007 25.4973C135.459 25.6203 135.925 25.6918 136.393 25.7106H136.82C137.289 25.6918 137.754 25.6203 138.207 25.4973C139.161 25.1227 139.973 24.4577 140.528 23.5963C141.083 22.7349 141.353 21.7208 141.3 20.6974C141.371 19.5233 141.008 18.3643 140.28 17.4401C139.553 16.516 138.511 15.8911 137.353 15.6841H136.607ZM155.593 11.9509C156.45 11.9599 157.306 12.0312 158.153 12.1642C158.461 12.2397 158.728 12.4306 158.9 12.6975C158.993 12.8166 159.053 12.959 159.072 13.1093C159.09 13.2597 159.068 13.4124 159.006 13.5509C158.9 13.8708 158.9 14.1908 158.793 14.6175C158.693 14.9911 158.47 15.3202 158.161 15.5523C157.851 15.7843 157.473 15.9059 157.086 15.8975H156.766C156.381 15.8137 155.987 15.7778 155.593 15.7908C155.102 15.788 154.615 15.8826 154.161 16.0692C153.707 16.2558 153.294 16.5307 152.947 16.8779C152.6 17.2252 152.325 17.6378 152.138 18.0921C151.952 18.5463 151.857 19.033 151.86 19.5241V27.8439C151.846 28.1445 151.735 28.4325 151.542 28.6637C151.35 28.8949 151.086 29.0565 150.793 29.1239H149.3C148.999 29.1105 148.711 28.9989 148.48 28.8063C148.249 28.6136 148.087 28.3505 148.02 28.0572V19.5241C148.02 17.5438 148.806 15.6447 150.207 14.2444C151.607 12.8442 153.506 12.0575 155.486 12.0575C155.486 11.9509 155.486 11.9509 155.593 11.9509ZM55.3284 11.9509C57.3178 11.8986 59.2482 12.6293 60.7044 13.9857C62.1606 15.3421 63.0262 17.216 63.1149 19.2041V27.7372C63.1016 28.0379 62.99 28.3258 62.7974 28.557C62.6047 28.7882 62.3416 28.9498 62.0483 29.0172H60.555C60.2543 29.0038 59.9664 28.8923 59.7352 28.6996C59.504 28.507 59.3424 28.2438 59.275 27.9506V20.0574C59.275 17.4974 57.675 15.7908 55.4351 15.7908C53.1951 15.7908 51.7018 17.3908 51.5952 19.8441V27.8439C51.5818 28.1445 51.4702 28.4325 51.2776 28.6637C51.0849 28.8949 50.8218 29.0565 50.5285 29.1239H49.0352C48.7346 29.1105 48.4466 28.9989 48.2154 28.8063C47.9842 28.6136 47.8226 28.3505 47.7552 28.0572V19.6307C47.7171 18.621 47.8861 17.6142 48.2518 16.6722C48.6175 15.7303 49.1722 14.8731 49.8816 14.1537C50.5911 13.4342 51.4404 12.8676 52.3771 12.4888C53.3139 12.1099 54.3183 11.9269 55.3284 11.9509ZM43.2753 12.1642C43.576 12.1776 43.8639 12.2891 44.0951 12.4818C44.3263 12.6744 44.488 12.9376 44.5553 13.2309V27.7372C44.5419 28.0379 44.4304 28.3258 44.2377 28.557C44.0451 28.7882 43.782 28.9498 43.4887 29.0172H41.9954C41.6947 29.0038 41.4068 28.8923 41.1756 28.6996C40.9444 28.507 40.7827 28.2438 40.7154 27.9506V13.3375C40.7287 13.0369 40.8403 12.7489 41.033 12.5177C41.2256 12.2866 41.4887 12.1249 41.782 12.0575H43.2753V12.1642ZM163.913 7.15099C164.213 7.16435 164.501 7.2759 164.733 7.46855C164.964 7.6612 165.125 7.92433 165.193 8.21763V12.0575H168.606C168.907 12.0709 169.195 12.1825 169.426 12.3751C169.657 12.5678 169.819 12.8309 169.886 13.1242V14.4042C169.873 14.7048 169.761 14.9928 169.568 15.224C169.376 15.4551 169.113 15.6168 168.819 15.6841H165.299V22.1907C165.305 23.0942 165.666 23.9591 166.305 24.598C166.944 25.2369 167.809 25.5983 168.713 25.6039C169.013 25.6173 169.301 25.7288 169.532 25.9215C169.764 26.1141 169.925 26.3773 169.993 26.6706V27.7372C169.984 28.1327 169.833 28.5118 169.566 28.8039C169.442 28.9353 169.294 29.0408 169.129 29.114C168.964 29.1873 168.786 29.2269 168.606 29.2305H168.499C166.615 29.195 164.818 28.4306 163.485 27.098C162.153 25.7654 161.388 23.9683 161.353 22.084V8.43096C161.366 8.13032 161.478 7.84236 161.67 7.61117C161.863 7.37999 162.126 7.21834 162.419 7.15099H163.913ZM84.7678 7.15099C85.0684 7.16435 85.3564 7.2759 85.5876 7.46855C85.8188 7.6612 85.9804 7.92433 86.0478 8.21763V12.0575H89.461C89.7617 12.0709 90.0496 12.1825 90.2808 12.3751C90.512 12.5678 90.6737 12.8309 90.741 13.1242V14.4042C90.7276 14.7048 90.6161 14.9928 90.4234 15.224C90.2308 15.4551 89.9677 15.6168 89.6744 15.6841H86.1544V22.1907C86.16 23.0942 86.5214 23.9591 87.1603 24.598C87.7992 25.2369 88.6642 25.5983 89.5677 25.6039C89.8683 25.6173 90.1563 25.7288 90.3875 25.9215C90.6187 26.1141 90.7803 26.3773 90.8477 26.6706V27.7372C90.8394 28.1327 90.6878 28.5118 90.421 28.8039C90.2975 28.9353 90.1489 29.0408 89.9841 29.114C89.8192 29.1873 89.6414 29.2269 89.461 29.2305H89.3544C87.4701 29.195 85.6729 28.4306 84.3403 27.098C83.0077 25.7654 82.2434 23.9683 82.2079 22.084V8.43096C82.2212 8.13032 82.3328 7.84236 82.5254 7.61117C82.7181 7.37999 82.9812 7.21834 83.2745 7.15099H84.7678ZM72.7147 11.9509C74.4772 11.9749 76.2037 12.4524 77.728 13.3375C77.9219 13.4229 78.0963 13.5473 78.2402 13.7029C78.384 13.8585 78.4944 14.042 78.5644 14.2421C78.6344 14.4421 78.6626 14.6544 78.6471 14.8658C78.6317 15.0771 78.573 15.2831 78.4746 15.4708V15.5775L78.3679 15.7908C78.2293 16.0399 78.0289 16.2492 77.7861 16.3986C77.5433 16.5481 77.2662 16.6326 76.9813 16.6441C76.7965 16.6719 76.6078 16.6342 76.448 16.5375L76.3413 16.4308L76.128 16.3241C75.1287 15.7206 73.9885 15.3896 72.8214 15.3641C71.0081 15.3641 69.8348 16.0041 69.8348 17.0708C69.8348 17.9241 70.6881 18.4574 72.0747 18.7774H72.2881L73.9947 18.9907C77.8346 19.5241 79.7546 21.124 79.7546 23.8973C79.7546 27.3106 76.9813 29.3372 72.5014 29.3372C70.3666 29.2684 68.2803 28.6828 66.4215 27.6306C66.2309 27.5398 66.064 27.4057 65.9344 27.2391C65.8048 27.0724 65.7159 26.8777 65.6749 26.6706C65.6134 26.4778 65.5911 26.2746 65.6094 26.0731C65.6278 25.8716 65.6863 25.6758 65.7815 25.4973L65.8882 25.3906L65.9949 25.2839C66.1555 25.0638 66.3635 24.8825 66.6034 24.7532C66.8434 24.624 67.1093 24.5502 67.3815 24.5373C67.6782 24.5444 67.9697 24.6172 68.2348 24.7506C69.5625 25.5231 71.072 25.928 72.6081 25.9239C75.3813 25.9239 75.808 24.8573 75.808 24.1106C75.808 23.364 75.0613 22.8307 73.3547 22.5107H73.1414L71.4347 22.2973C67.5948 21.8707 65.6749 20.164 65.6749 17.3908C65.6749 14.0842 68.4481 11.9509 72.7147 11.9509ZM101.194 11.9509C102.766 11.9329 104.313 12.3382 105.674 13.1242L105.994 13.3375C107.173 14.0946 108.143 15.1362 108.814 16.3664C109.485 17.5967 109.836 18.976 109.834 20.3774V27.7372C109.821 28.0379 109.709 28.3258 109.516 28.557C109.324 28.7882 109.061 28.9498 108.767 29.0172H107.274C106.973 29.0038 106.685 28.8923 106.454 28.6996C106.223 28.507 106.061 28.2438 105.994 27.9506V27.2039C105.383 27.933 104.614 28.5136 103.746 28.9016C102.877 29.2897 101.932 29.4751 100.981 29.4439C99.5119 29.448 98.0711 29.0416 96.8209 28.2705C95.5092 27.5004 94.4302 26.39 93.6979 25.0569C92.9656 23.7237 92.6073 22.2174 92.661 20.6974C92.6066 19.2809 92.9105 17.8737 93.5444 16.6058C94.1783 15.338 95.1218 14.2506 96.2876 13.4442L96.5009 13.3375C97.811 12.4981 99.3197 12.0198 100.874 11.9509H101.194ZM136.713 11.9509C138.285 11.9329 139.832 12.3382 141.193 13.1242L141.513 13.3375C142.693 14.0946 143.662 15.1362 144.333 16.3664C145.004 17.5967 145.355 18.976 145.353 20.3774V27.7372C145.34 28.0379 145.228 28.3258 145.036 28.557C144.843 28.7882 144.58 28.9498 144.287 29.0172H142.793C142.493 29.0038 142.205 28.8923 141.973 28.6996C141.742 28.507 141.581 28.2438 141.513 27.9506V27.2039C140.902 27.933 140.133 28.5136 139.265 28.9016C138.396 29.2897 137.451 29.4751 136.5 29.4439C135.031 29.448 133.59 29.0416 132.34 28.2705C131.029 27.5004 129.949 26.39 129.217 25.0569C128.485 23.7237 128.127 22.2174 128.18 20.6974C128.126 19.2809 128.43 17.8737 129.064 16.6058C129.698 15.338 130.641 14.2506 131.807 13.4442L132.02 13.3375C133.33 12.4981 134.839 12.0198 136.393 11.9509H136.713ZM120.82 11.9509C122.495 11.8858 124.144 12.373 125.514 13.3375C125.947 13.6432 126.252 14.0996 126.367 14.6175C126.404 14.8658 126.385 15.1194 126.312 15.3594C126.238 15.5994 126.111 15.8198 125.94 16.0041L125.834 16.1108L125.727 16.2175C125.471 16.5265 125.103 16.7222 124.704 16.7621C124.305 16.8021 123.906 16.683 123.594 16.4308C122.766 15.8955 121.806 15.6001 120.82 15.5775C118.154 15.5775 116.234 17.7108 116.234 20.5907C116.234 23.4706 118.154 25.6039 120.82 25.6039C121.837 25.5694 122.829 25.2757 123.7 24.7506C123.981 24.55 124.315 24.4384 124.66 24.4306C125.084 24.4588 125.491 24.6067 125.834 24.8573L125.94 24.9639L126.047 25.0706C126.219 25.2757 126.345 25.5147 126.419 25.7719C126.492 26.0292 126.511 26.299 126.474 26.5639C126.438 26.8282 126.343 27.0809 126.195 27.3027C126.047 27.5246 125.851 27.7097 125.62 27.8439C124.189 28.7618 122.521 29.2436 120.82 29.2305C119.659 29.2787 118.5 29.0855 117.417 28.663C116.334 28.2405 115.35 27.5979 114.528 26.7759C113.706 25.9539 113.064 24.9704 112.641 23.8874C112.219 22.8044 112.026 21.6455 112.074 20.484C112.074 15.5775 115.594 11.9509 120.82 11.9509ZM20.4491 13.6575C22.4758 15.6841 24.0757 18.9907 23.1158 20.9107C20.5558 26.1373 1.78287 35.4171 0.182904 33.8171C-1.41706 32.2171 7.86274 13.4442 13.0893 10.8842C15.1159 9.92426 18.4225 11.6309 20.4491 13.6575Z" fill="#1F304C"/>
</svg>
